lib/logo_tmp/nrk-logo-nrk-sapmi-with-bg.svg

<svg width="114" height="28" viewBox="0 0 114 28" fill="none" xmlns="http://www.w3.org/2000/svg">
<rect width="113.667" height="28" fill="#114F9D"/>
<path d="M6.66663 21.0001V7.00135H11.26V21.0001H6.66663ZM17.5094 9.22932L20.151 21.0001H15.124L11.9697 7.00135H14.7892C15.4357 6.99296 16.063 7.22087 16.5535 7.6422C17.0449 8.04586 17.3824 8.60623 17.5094 9.22932ZM20.8411 21.0001V7.00135H25.4345V21.0001H20.8411ZM28.9038 12.3249C28.4089 12.3297 27.9218 12.2002 27.4946 11.9502C27.073 11.7066 26.7229 11.3564 26.4793 10.9348C26.229 10.5075 26.0995 10.0203 26.1044 9.52512C26.0988 9.03295 26.2284 8.54869 26.4793 8.12525C26.7255 7.70824 27.0752 7.36186 27.4946 7.11969C27.922 6.87 28.4089 6.74052 28.9038 6.74503C29.3959 6.73973 29.8799 6.86933 30.3035 7.11969C30.7187 7.36398 31.0647 7.71007 31.309 8.12525C31.5596 8.54881 31.6892 9.03299 31.6838 9.52512C31.6884 10.0203 31.5589 10.5073 31.309 10.9348C31.0673 11.3545 30.7209 11.7044 30.3035 11.9502C29.8799 12.2011 29.3955 12.3307 28.9032 12.3249H28.9038ZM32.3935 21.0001V7.00135H36.9873V21.0001H32.3935ZM42.8027 14.6514C42.8156 14.6649 42.9141 14.8259 43.0983 15.1344C43.2826 15.4429 43.5224 15.8372 43.8179 16.3174C44.1136 16.7974 44.4257 17.3067 44.754 17.8454C45.0824 18.3841 45.3913 18.8935 45.6809 19.3735C45.9694 19.8535 46.298 20.3957 46.6666 21.0001H41.6198C41.3041 20.4875 41.0181 20.0241 40.7618 19.6101C40.5056 19.196 40.2331 18.7491 39.9444 18.2693C39.6551 17.79 39.369 17.3234 39.0862 16.8695C38.8034 16.4155 38.5604 16.018 38.3571 15.6766C38.153 15.3351 38.0116 15.1051 37.9329 14.9865C37.7379 14.6924 37.6225 14.3528 37.5981 14.0007C37.6176 13.6628 37.7263 13.3362 37.9132 13.054C37.992 12.9226 38.1366 12.6892 38.3469 12.3541C38.5572 12.0189 38.8036 11.6213 39.0862 11.1613C39.3688 10.7012 39.6549 10.2313 39.9444 9.75152C40.234 9.27175 40.5064 8.82152 40.7618 8.4009C41.0186 7.98072 41.3046 7.5141 41.6198 7.00103H46.6666L42.7629 13.3695C42.6421 13.5586 42.574 13.7765 42.5657 14.0007C42.5787 14.2361 42.6609 14.4625 42.8019 14.6514H42.8027Z" fill="white"/>
<path d="M60.5058 14.4369C60.2215 14.1434 59.8915 13.8992 59.5292 13.7139C59.1493 13.5189 58.754 13.3566 58.3474 13.2286C57.9302 13.0966 57.5005 12.9842 57.0582 12.8915C56.7192 12.8125 56.4034 12.7334 56.1108 12.6542C55.842 12.5838 55.5803 12.4875 55.3295 12.3666C55.1139 12.2631 54.9135 12.1298 54.7341 11.9705C54.565 11.8194 54.4342 11.6292 54.3528 11.4162C54.2626 11.1656 54.2196 10.9001 54.2259 10.6334C54.2215 10.3573 54.2644 10.0825 54.3528 9.82127C54.433 9.59084 54.567 9.38351 54.7435 9.21709C54.9264 9.04727 55.1341 8.90711 55.3591 8.80147C55.6163 8.68258 55.8893 8.60246 56.1694 8.56374C56.5027 8.51559 56.8391 8.49243 57.1757 8.49442C57.4823 8.49503 57.7885 8.51146 58.0934 8.54363C58.402 8.57629 58.7086 8.62597 59.0118 8.6925C59.3062 8.75729 59.5965 8.83997 59.881 8.9401C60.1475 9.03302 60.4057 9.1489 60.6526 9.28644L60.9261 7.54362C60.6484 7.39667 60.3572 7.27728 60.0569 7.18708C59.7506 7.09486 59.4414 7.0155 59.1291 6.94903C58.8128 6.88275 58.4932 6.83328 58.1719 6.8008C57.8463 6.76779 57.5143 6.75127 57.1757 6.75127C56.485 6.7437 55.796 6.82344 55.1247 6.98864C54.5532 7.12859 54.0131 7.37744 53.5331 7.72191C53.0907 8.04362 52.7348 8.4725 52.4978 8.96948C52.2449 9.52804 52.1214 10.1378 52.1365 10.7522C52.1253 11.2277 52.2014 11.7012 52.3611 12.1484C52.5011 12.5234 52.7173 12.8643 52.9956 13.1491C53.2711 13.4277 53.5874 13.6615 53.9332 13.8424C54.3 14.034 54.6824 14.1932 55.0762 14.3181C55.4864 14.4502 55.9064 14.5624 56.3361 14.6548C56.6877 14.7339 57.0133 14.8164 57.3128 14.9025C57.5913 14.9803 57.8625 15.083 58.1231 15.2095C58.3473 15.3168 58.5547 15.457 58.7387 15.6254C58.9131 15.7916 59.0497 15.9945 59.1388 16.2197C59.2426 16.4911 59.2924 16.7805 59.2856 17.0715C59.2908 17.3808 59.2446 17.6888 59.1489 17.9826C59.0632 18.2368 58.9306 18.472 58.7582 18.6759C58.585 18.8769 58.372 19.0388 58.1332 19.151C57.8633 19.2771 57.5772 19.3639 57.2834 19.4088C56.9249 19.4646 56.5625 19.4912 56.1997 19.4881C55.847 19.4872 55.4948 19.464 55.1449 19.4187C54.7803 19.3725 54.4155 19.3097 54.0507 19.2303C53.6914 19.1526 53.3362 19.0568 52.9864 18.943C52.6409 18.8315 52.3121 18.716 52 18.5967L52.2539 20.5578C52.5869 20.6838 52.926 20.7927 53.2697 20.8843C53.5817 20.9673 53.8978 21.0334 54.2167 21.0823C54.5228 21.1283 54.8289 21.1646 55.1351 21.1913C55.4414 21.2179 55.7505 21.2311 56.0626 21.2309C56.7619 21.2353 57.4596 21.1622 58.1433 21.013C58.7484 20.8843 59.3245 20.6425 59.8423 20.2999C60.3257 19.9756 60.7165 19.5282 60.9756 19.0024C61.2607 18.3798 61.3978 17.6979 61.3757 17.0117C61.3864 16.5005 61.3105 15.9912 61.1514 15.5059C61.0148 15.1065 60.7946 14.7418 60.5058 14.4369Z" fill="#9FDAF5"/>
<path d="M72.1965 19.7654C72.0537 19.7786 71.9098 19.7568 71.7772 19.7016C71.6445 19.6464 71.5269 19.5596 71.4344 19.4485C71.2533 19.1311 71.178 18.7628 71.2198 18.3986L71.2585 14.3181C71.2629 13.8903 71.2103 13.4639 71.1023 13.0503C71.0076 12.6875 70.8487 12.3451 70.6335 12.0398C70.4161 11.7414 70.1402 11.4919 69.8232 11.3069C69.4545 11.0949 69.056 10.9414 68.6415 10.8516C68.1345 10.7406 67.6169 10.6874 67.0983 10.6931C66.6868 10.6928 66.2756 10.7192 65.8674 10.772C65.4818 10.8215 65.1 10.8977 64.7247 11.0001C64.3766 11.0958 64.0342 11.2115 63.6992 11.3468L63.4648 13.0305C63.7903 12.912 64.1 12.8129 64.3926 12.7334C64.6853 12.6538 64.9688 12.5881 65.2423 12.5353C65.5103 12.4835 65.7812 12.4472 66.0533 12.4267C66.3198 12.4069 66.5834 12.3969 66.8441 12.3966C67.2424 12.3881 67.6399 12.4347 68.0258 12.5353C68.3075 12.6068 68.5664 12.7501 68.7782 12.9516C68.9667 13.1474 69.1013 13.3899 69.1688 13.6548C69.2521 13.9814 69.2916 14.3179 69.2861 14.6551L69.2837 15.152L67.001 15.3088C66.2201 15.3309 65.4507 15.5056 64.7351 15.8235C64.1996 16.0611 63.7372 16.441 63.3967 16.9229C63.1079 17.3517 62.9547 17.8595 62.9573 18.3788C62.9536 18.8662 63.0712 19.3466 63.2994 19.7756C63.5382 20.2162 63.8977 20.5772 64.3344 20.8152C64.8672 21.0963 65.4627 21.2328 66.063 21.2114C66.6254 21.2245 67.1853 21.1305 67.7136 20.9344C68.1703 20.7532 68.5882 20.4841 68.9442 20.1421C69.0796 20.0108 69.2079 19.8723 69.3287 19.7271C69.3666 19.9323 69.4381 20.1295 69.5403 20.3108C69.7143 20.614 69.9818 20.8507 70.3017 20.9843C70.6554 21.1284 71.0341 21.1991 71.4152 21.1923C71.5327 21.1923 71.6463 21.1886 71.757 21.1823C71.8657 21.1757 71.9736 21.1591 72.0793 21.1325C72.1834 21.1061 72.2779 21.0833 72.3625 21.0632C72.4391 21.0461 72.5142 21.0228 72.5871 20.9938L72.8021 19.667C72.6943 19.7044 72.5832 19.731 72.4703 19.7462C72.3795 19.7583 72.2881 19.7647 72.1965 19.7654ZM68.9439 18.874C68.7321 19.0438 68.5029 19.19 68.2602 19.3101C68.0184 19.4292 67.7623 19.5158 67.4984 19.5676C67.2249 19.621 66.9468 19.6474 66.6683 19.6465C66.35 19.656 66.0335 19.5951 65.7407 19.4682C65.5023 19.3635 65.3011 19.1874 65.1642 18.9634C65.0289 18.726 64.9613 18.4551 64.9689 18.181C64.95 17.8506 65.0394 17.5232 65.2231 17.2497C65.4357 16.9981 65.7238 16.8241 66.0432 16.7545C66.5423 16.6355 67.0543 16.5824 67.5668 16.5964H69.2772L69.2688 18.5623C69.1694 18.6752 69.0607 18.7797 68.9439 18.874Z" fill="#9FDAF5"/>
<path d="M70.1843 5.97876H68.075L66.4146 9.52446H67.9385L70.1843 5.97876Z" fill="#9FDAF5"/>
<path d="M82.1679 11.3171C81.4668 10.8818 80.6552 10.6648 79.8337 10.6931C79.3461 10.6956 78.8607 10.7587 78.3882 10.881C77.8777 11.0128 77.3855 11.2092 76.9232 11.4656C76.8314 11.5161 76.7406 11.5723 76.6494 11.629V10.7129L74.6574 11.0299V25.1727H76.6494V20.7379C76.6628 20.7435 76.6752 20.7498 76.6888 20.7558C77.0498 20.9076 77.4266 21.0172 77.812 21.0826C78.2671 21.1587 78.7278 21.1952 79.1891 21.1915C80.0685 21.2069 80.9356 20.9809 81.6988 20.5375C82.4484 20.0871 83.0576 19.4316 83.4567 18.6462C83.9178 17.7096 84.1425 16.6717 84.1108 15.6254C84.1292 14.7407 83.9595 13.8624 83.6131 13.0503C83.3075 12.3425 82.8053 11.7403 82.1679 11.3171ZM81.6503 17.943C81.4156 18.469 81.0224 18.9058 80.5271 19.1906C79.9766 19.483 79.361 19.6264 78.7399 19.6069C78.4423 19.6071 78.145 19.5838 77.851 19.5372C77.5425 19.4874 77.2387 19.4113 76.9428 19.3098C76.849 19.2767 76.7474 19.2391 76.6497 19.2028V12.9516C76.6758 12.9394 76.7025 12.9235 76.7282 12.9116C77.0147 12.7796 77.2817 12.6672 77.5291 12.5746C77.7634 12.4858 78.0054 12.4195 78.2518 12.3765C78.4711 12.3382 78.6931 12.3183 78.9156 12.3171C79.5179 12.2968 80.1156 12.4296 80.6544 12.7033C81.1253 12.9634 81.494 13.3792 81.6991 13.8816C81.9476 14.5244 82.064 15.212 82.0413 15.902C82.062 16.6034 81.9284 17.3005 81.6503 17.943Z" fill="#9FDAF5"/>
<path d="M100.031 11.1091C99.4979 10.8159 98.8977 10.6722 98.292 10.6931C97.7663 10.6917 97.2443 10.7821 96.7489 10.9605C96.2457 11.1433 95.7718 11.4002 95.3425 11.7229C95.0992 11.9058 94.8677 12.1043 94.6494 12.3171C94.4492 11.8212 94.0962 11.4042 93.6431 11.1286C93.1039 10.8341 92.4971 10.6906 91.8851 10.7129C91.3627 10.713 90.8442 10.8034 90.3518 10.98C89.8464 11.1605 89.3693 11.4141 88.9356 11.733C88.7953 11.8354 88.6592 11.9467 88.5254 12.0632V10.7143L86.533 11.0114V21.0146H88.5254V13.4779C88.76 13.3219 89.0047 13.182 89.2579 13.0593C89.5677 12.9105 89.8916 12.7943 90.2248 12.7123C90.5316 12.6356 90.8464 12.5959 91.1624 12.5937C91.4526 12.5847 91.7416 12.6352 92.012 12.7423C92.2358 12.8384 92.4335 12.9878 92.5883 13.1778C92.758 13.3987 92.875 13.6564 92.9301 13.9308C93.0063 14.2853 93.0424 14.6473 93.0376 15.01V21.0123H95.0299V14.594C95.0313 14.2151 95.0061 13.8366 94.9544 13.4614C95.1803 13.3111 95.4143 13.1735 95.6551 13.0493C95.9596 12.8937 96.2807 12.774 96.6122 12.6928C96.9255 12.6148 97.2467 12.5748 97.5693 12.5736C97.8562 12.5666 98.1417 12.6173 98.4092 12.7225C98.637 12.8165 98.8383 12.9662 98.9952 13.1583C99.1651 13.3789 99.2822 13.6366 99.337 13.911C99.4132 14.2655 99.4493 14.6277 99.4445 14.9906V21.0123H101.437V14.5746C101.462 13.8254 101.343 13.0785 101.085 12.3758C100.883 11.8463 100.511 11.4006 100.031 11.1091Z" fill="#9FDAF5"/>
<path d="M104.386 21.0133H106.379V10.7129L104.386 11.0101V21.0133Z" fill="#9FDAF5"/>
<path d="M106.574 7.05799C106.458 6.85481 106.294 6.68451 106.096 6.56278C105.893 6.4372 105.659 6.37207 105.422 6.3749C105.181 6.37285 104.945 6.43786 104.738 6.56278C104.534 6.68371 104.363 6.85382 104.24 7.05799C104.116 7.26372 104.052 7.50063 104.054 7.74168C104.052 7.98566 104.117 8.22549 104.24 8.43497C104.359 8.64234 104.531 8.81338 104.738 8.93018C104.947 9.04926 105.182 9.11075 105.422 9.10847C105.658 9.11155 105.891 9.04995 106.096 8.93018C106.297 8.81249 106.462 8.64123 106.574 8.43497C106.692 8.22346 106.752 7.9844 106.75 7.74168C106.753 7.50192 106.692 7.2658 106.574 7.05799Z" fill="#9FDAF5"/>
</svg>

<svg xmlns="http://www.w3.org/2000/svg" viewBox="0 0 114 28"><path fill="#114F9D" d="M0 0h113.667v28H0z"/><path fill="#fff" d="M6.667 21V7.001h4.593v14H6.667ZM17.509 9.23 20.151 21h-5.027L11.97 7.001h2.82a2.655 2.655 0 0 1 1.764.641c.49.404.828.964.955 1.587ZM20.841 21V7.001h4.593v14h-4.593Zm8.063-8.675a2.738 2.738 0 0 1-1.41-.375 2.777 2.777 0 0 1-1.015-1.015 2.735 2.735 0 0 1-.375-1.41 2.686 2.686 0 0 1 .375-1.4 2.812 2.812 0 0 1 3.825-1.005c.415.244.76.59 1.005 1.005.25.424.38.908.375 1.4.004.495-.125.982-.375 1.41a2.8 2.8 0 0 1-1.006 1.015c-.423.251-.908.38-1.4.375ZM32.394 21V7.001h4.593v14h-4.593Zm10.409-6.349c.013.014.111.175.295.483.185.309.424.703.72 1.183a373.133 373.133 0 0 1 1.863 3.056c.288.48.617 1.023.986 1.627H41.62a712.71 712.71 0 0 0-.858-1.39 127.3 127.3 0 0 1-.818-1.34c-.289-.48-.575-.947-.858-1.4a71.117 71.117 0 0 1-.729-1.193 20.869 20.869 0 0 0-.424-.69 2.039 2.039 0 0 1-.335-.986c.02-.338.128-.665.315-.947.079-.131.224-.365.434-.7a209.23 209.23 0 0 0 1.598-2.603c.289-.48.561-.93.817-1.35L41.62 7h5.047l-3.904 6.369c-.12.189-.189.407-.197.63.013.236.095.463.236.651Z"/><path fill="#9FDAF5" d="M60.506 14.437a3.715 3.715 0 0 0-.977-.723 7.557 7.557 0 0 0-1.182-.485 13.347 13.347 0 0 0-1.289-.337 27.695 27.695 0 0 1-.947-.238 4.32 4.32 0 0 1-.781-.287 2.575 2.575 0 0 1-.596-.397c-.169-.15-.3-.34-.381-.554a2.161 2.161 0 0 1-.127-.783c-.005-.276.038-.55.127-.812.08-.23.214-.437.39-.604.183-.17.391-.31.616-.416.257-.118.53-.199.81-.237.334-.048.67-.072 1.007-.07.306.001.612.017.917.05.309.032.616.082.919.149.294.064.584.147.869.247.267.093.525.209.772.346l.273-1.742a4.828 4.828 0 0 0-.87-.357 11.575 11.575 0 0 0-.927-.238 9.16 9.16 0 0 0-.957-.148 9.871 9.871 0 0 0-.996-.05 8.206 8.206 0 0 0-2.051.238 4.61 4.61 0 0 0-1.592.733c-.442.322-.798.75-1.035 1.247a4.08 4.08 0 0 0-.361 1.783 3.88 3.88 0 0 0 .224 1.396c.14.375.356.716.635 1.001.275.279.591.513.937.693.367.192.75.351 1.143.476.41.132.83.244 1.26.337.352.079.677.161.977.248.278.077.55.18.81.306.224.108.432.248.616.416.174.167.31.37.4.595.104.271.153.56.147.852a2.79 2.79 0 0 1-.137.91c-.086.255-.218.49-.39.694a1.882 1.882 0 0 1-.626.475c-.27.126-.556.213-.85.258-.358.056-.72.082-1.083.08a8.38 8.38 0 0 1-1.055-.07c-.365-.047-.73-.11-1.094-.189a10.86 10.86 0 0 1-1.065-.287 19.769 19.769 0 0 1-.986-.346l.254 1.96c.333.127.672.236 1.016.327.312.083.628.15.947.198.306.046.612.083.918.11.306.026.616.04.928.039.699.004 1.397-.069 2.08-.218a4.942 4.942 0 0 0 1.7-.713 3.338 3.338 0 0 0 1.133-1.298 4.44 4.44 0 0 0 .4-1.99 4.53 4.53 0 0 0-.225-1.506 2.936 2.936 0 0 0-.645-1.07ZM72.197 19.765a.88.88 0 0 1-.763-.317 1.723 1.723 0 0 1-.214-1.05l.038-4.08a4.822 4.822 0 0 0-.156-1.268 3.123 3.123 0 0 0-.469-1.01 2.665 2.665 0 0 0-.81-.733 4.12 4.12 0 0 0-1.181-.455 6.862 6.862 0 0 0-1.544-.159c-.411 0-.822.026-1.23.079-.386.05-.768.126-1.143.228-.348.096-.69.211-1.026.347l-.234 1.684a11.662 11.662 0 0 1 1.777-.496c.268-.052.54-.088.811-.108.267-.02.53-.03.791-.03.398-.009.796.038 1.182.138.282.072.54.215.752.417.189.195.323.438.39.703.084.326.124.663.118 1l-.002.497-2.283.157c-.78.022-1.55.197-2.266.514a3.258 3.258 0 0 0-1.338 1.1 2.584 2.584 0 0 0-.44 1.456c-.003.487.114.968.342 1.397.24.44.599.801 1.035 1.04a3.44 3.44 0 0 0 1.729.395 4.445 4.445 0 0 0 1.65-.277 3.8 3.8 0 0 0 1.231-.792c.136-.131.264-.27.385-.415.038.205.11.402.211.584.174.303.442.54.762.673.353.144.732.215 1.113.208a6 6 0 0 0 .342-.01c.109-.006.217-.023.322-.05l.284-.069a1.48 1.48 0 0 0 .224-.07l.215-1.326a1.707 1.707 0 0 1-.332.08 2.2 2.2 0 0 1-.273.018Zm-3.253-.891c-.212.17-.441.316-.684.436-.242.12-.498.206-.762.258a4.26 4.26 0 0 1-.83.078 2.17 2.17 0 0 1-.927-.178 1.279 1.279 0 0 1-.577-.505 1.497 1.497 0 0 1-.195-.782c-.019-.33.07-.658.254-.931.213-.252.5-.426.82-.495a5.876 5.876 0 0 1 1.524-.159h1.71l-.008 1.966c-.1.113-.208.218-.325.312ZM70.184 5.979h-2.109l-1.66 3.545h1.523l2.246-3.545ZM82.168 11.317a4.153 4.153 0 0 0-2.334-.624 5.888 5.888 0 0 0-1.446.188 6.233 6.233 0 0 0-1.739.748v-.916l-1.992.317v14.143h1.992v-4.435l.04.018c.36.152.738.261 1.123.327.455.076.916.112 1.377.109.88.015 1.747-.211 2.51-.654a4.675 4.675 0 0 0 1.758-1.892 6.402 6.402 0 0 0 .654-3.02 6.234 6.234 0 0 0-.498-2.576 3.966 3.966 0 0 0-1.445-1.733Zm-.518 6.626a2.712 2.712 0 0 1-1.123 1.248 3.57 3.57 0 0 1-1.787.416 5.5 5.5 0 0 1-1.797-.297c-.094-.033-.196-.07-.293-.107v-6.251c.026-.013.052-.028.078-.04.287-.132.554-.245.801-.337a3.96 3.96 0 0 1 1.387-.258c.602-.02 1.2.113 1.738.386.471.26.84.676 1.045 1.179.249.642.365 1.33.342 2.02a4.784 4.784 0 0 1-.39 2.041ZM100.031 11.11a3.366 3.366 0 0 0-1.739-.417 4.518 4.518 0 0 0-1.543.268c-.503.182-.977.44-1.406.762a7.136 7.136 0 0 0-.694.594 2.473 2.473 0 0 0-1.006-1.188 3.407 3.407 0 0 0-1.758-.416c-.522 0-1.04.09-1.533.267a5.531 5.531 0 0 0-1.827 1.083v-1.349l-1.992.297v10.004h1.992v-7.537c.235-.156.48-.296.733-.419.31-.148.634-.265.967-.347a3.98 3.98 0 0 1 .937-.118c.29-.01.58.041.85.148.224.096.421.246.576.436.17.22.287.478.342.753.076.354.112.716.108 1.079v6.002h1.992v-6.418a8.079 8.079 0 0 0-.076-1.133c.226-.15.46-.287.701-.412.305-.155.626-.275.957-.356.314-.078.635-.118.957-.12.287-.006.573.044.84.15.228.093.43.243.586.435.17.22.287.479.342.753.076.354.112.717.108 1.08v6.021h1.992v-6.437a5.817 5.817 0 0 0-.352-2.2 2.542 2.542 0 0 0-1.054-1.266ZM104.386 21.013h1.993v-10.3l-1.993.297v10.003ZM106.574 7.058a1.388 1.388 0 0 0-.478-.495 1.254 1.254 0 0 0-.674-.188 1.3 1.3 0 0 0-.684.188c-.204.12-.375.29-.498.495a1.303 1.303 0 0 0-.186.684c-.002.244.063.483.186.693a1.353 1.353 0 0 0 1.182.674c.236.003.469-.059.674-.179.201-.118.366-.289.478-.495.118-.212.178-.45.176-.693a1.351 1.351 0 0 0-.176-.684Z"/></svg>
